images_elementary_svg/cmd/sc_formfilternavigator.svg

<svg height="16" width="16" xmlns="http://www.w3.org/2000/svg" xmlns:xlink="http://www.w3.org/1999/xlink"><linearGradient id="a" gradientUnits="userSpaceOnUse" x1="2.903" x2="12.828" y1="8.504" y2="8.504"><stop offset="0" stop-color="#e3e3e4"/><stop offset=".5" stop-color="#fcfcfc"/><stop offset="1" stop-color="#e3e3e4"/></linearGradient><linearGradient id="b" gradientUnits="userSpaceOnUse" x1=".918" x2="14.813" y1="5.675" y2="3.789"><stop offset="0" stop-opacity=".34"/><stop offset="1" stop-opacity=".247"/></linearGradient><radialGradient id="c" cx="23.896" cy="3.99" gradientTransform="matrix(0 .71350132 -.94180913 0 13.970683 -11.981372)" gradientUnits="userSpaceOnUse" r="20.396999"><stop offset="0" stop-color="#fff"/><stop offset=".26238" stop-color="#ddd"/><stop offset=".66093999" stop-color="#abacae"/><stop offset="1" stop-color="#89898b"/></radialGradient><linearGradient id="d" gradientUnits="userSpaceOnUse" x1="9.833901" x2="9.833901" y1="5.364319" y2="15.161281"><stop offset="0" stop-color="#fff"/><stop offset=".42447853" stop-color="#fff" stop-opacity=".235294"/><stop offset=".82089913" stop-color="#fff" stop-opacity=".156863"/><stop offset="1" stop-color="#fff" stop-opacity=".392157"/></linearGradient><linearGradient id="e" gradientTransform="matrix(.22565757 0 0 .2256565 -10.567067 2.888219)" gradientUnits="userSpaceOnUse" x1="92.696327" x2="92.696327" y1="16.554602" y2="48.983677"><stop offset="0" stop-color="#fff"/><stop offset=".33799788" stop-color="#fff" stop-opacity=".235294"/><stop offset=".61996669" stop-color="#fff" stop-opacity=".156863"/><stop offset="1" stop-color="#fff" stop-opacity=".392157"/></linearGradient><radialGradient id="f" cx="91.349998" cy="16.447752" gradientTransform="matrix(0 .44015931 -.44016136 0 17.452437 -33.357288)" gradientUnits="userSpaceOnUse" r="15.639286"><stop offset="0" stop-color="#07132d"/><stop offset="1" stop-color="#425479"/></radialGradient><linearGradient id="g" gradientUnits="userSpaceOnUse" x1="9.169888" x2="12" xlink:href="#h" y1="6.694915" y2="7"/><linearGradient id="h"><stop offset="0" stop-color="#f87e7e"/><stop offset=".232" stop-color="#e34f4f"/><stop offset=".591" stop-color="#c6262a"/><stop offset="1" stop-color="#690b0b"/></linearGradient><linearGradient id="i" gradientUnits="userSpaceOnUse" x1="14.5" x2="12" xlink:href="#h" y1="5" y2="14"/><linearGradient id="j"><stop offset="0" stop-color="#fff"/><stop offset="1" stop-color="#c1c1c1"/></linearGradient><linearGradient id="k" gradientUnits="userSpaceOnUse" x1="14" x2="7.5" xlink:href="#j" y1="15" y2="14"/><linearGradient id="l" gradientTransform="matrix(.11456319 -.12240772 .12240772 .11456319 -2.512264 3.362804)" gradientUnits="userSpaceOnUse" x1="24" x2="24" xlink:href="#j" y1="22" y2="26"/><linearGradient id="m" gradientUnits="userSpaceOnUse" x1="12" x2="13.304688" xlink:href="#j" y1="17" y2="17"/><g stroke-width=".967" transform="matrix(1.0076 0 0 1.06043 .075 -1.018)"><path d="m.44 1.44 14.88.006-.004 2.626-6.145 5.31v6.18h-2.621v-6.182l-6.11-5.308z" fill="url(#a)" fill-rule="evenodd" stroke="url(#b)" stroke-linejoin="round"/><path d="m1.312 2.32 13.006.05v1.32l-6.02 5.25v5.736h-.874v-5.736l-6.112-5.295z" fill="none" stroke="#fdfdfb"/></g><path d="m10.212772 5.1735308c-2.7940055 0-5.0637562 2.2697492-5.0637562 5.0637562 0 2.794009 2.2697507 5.063758 5.0637562 5.063758 2.794005 0 5.06376-2.269749 5.063756-5.063758 0-2.794007-2.269751-5.0637562-5.063756-5.0637562z" fill="url(#c)"/><g fill="none"><path d="m14.914831 10.237288c0 2.596877-2.105181 4.702059-4.702064 4.702059-2.5968732 0-4.7020543-2.105182-4.7020543-4.702059 0-2.5968777 2.1051811-4.7020594 4.7020543-4.7020594 2.596883 0 4.702064 2.1051817 4.702064 4.7020594z" opacity=".8" stroke="url(#d)" stroke-linecap="round" stroke-linejoin="round"/><path d="m10.07465 4.6492972c-2.9935204 0-5.4253501 2.4318275-5.4253501 5.4253508 0 2.993524 2.4318297 5.425352 5.4253501 5.425352 2.99352 0 5.425355-2.431828 5.42535-5.425352 0-2.9935233-2.43183-5.4253508-5.42535-5.4253508z" opacity=".7" stroke="#636363"/><path d="m13.82974 10.238174a3.6169687 3.6169518 0 0 1 -7.233937 0 3.6169687 3.6169518 0 1 1 7.233937 0z" opacity=".3" stroke="url(#e)"/></g><path d="m13.688741 10.23802a3.4759692 3.4759529 0 0 1 -6.9519383 0 3.4759692 3.4759529 0 1 1 6.9519383 0z" fill="url(#f)"/><g transform="matrix(2.1409749 .77925114 -.77925114 2.1409749 5.80258 .650926)"><path d="m3.1782893.66986989-.3038575 2.02674971-.3290511-.082532v1.0952515l.2818838-.047551.047167.2729986.3038575 2.0267497.3038576-2.0267497-.0056-.2667522.3208298-.048474v-.6077151l-.2331396.00947-.082087-.324698z" fill-opacity=".389706"/><g transform="scale(.26458334)"><path d="m12 2-2.3796637 7.880016 2.3796637 2.119984z" fill="url(#g)"/><path d="m12 2v10l2.392095-2.119984z" fill="url(#i)"/><path d="m12 12v10l2.392095-7.808885z" fill="url(#m)"/><path d="m12 12-2.3796636 2.019549 2.3796636 7.980451z" fill="url(#k)"/></g><path d="m3.8973717 3.1747972c-.0003961.9627655-1.4451394.9627655-1.4447433 0-.0003964-.963558 1.4443469-.963558 1.4447433 0z" opacity=".2" stroke-width=".722372"/><path d="m3.4041639 2.9297196a.3353111.3353111 0 0 1 -.4582529.4896309.3353111.3353111 0 1 1 .4582529-.4896309z" fill="url(#l)" stroke-width=".335311"/></g></svg>

<?xml version="1.0" encoding="UTF-8" standalone="no"?>
<svg
   xmlns:dc="http://purl.org/dc/elements/1.1/"
   xmlns:cc="http://creativecommons.org/ns#"
   xmlns:rdf="http://www.w3.org/1999/02/22-rdf-syntax-ns#"
   xmlns:svg="http://www.w3.org/2000/svg"
   xmlns="http://www.w3.org/2000/svg"
   xmlns:xlink="http://www.w3.org/1999/xlink"
   xmlns:sodipodi="http://sodipodi.sourceforge.net/DTD/sodipodi-0.dtd"
   xmlns:inkscape="http://www.inkscape.org/namespaces/inkscape"
   height="16"
   width="16"
   version="1.1"
   id="svg31"
   sodipodi:docname="sc_formfilternavigator.svg"
   inkscape:version="0.92.3 (unknown)"
   inkscape:export-filename="/home/rizmut/Dokumen/Rizmut/Github/libreoffice-style-elementary/images_elementary/cmd/sc_formfilternavigator.png"
   inkscape:export-xdpi="96"
   inkscape:export-ydpi="96">
  <metadata
     id="metadata35">
    <rdf:RDF>
      <cc:Work
         rdf:about="">
        <dc:format>image/svg+xml</dc:format>
        <dc:type
           rdf:resource="http://purl.org/dc/dcmitype/StillImage" />
        <dc:title></dc:title>
      </cc:Work>
    </rdf:RDF>
  </metadata>
  <sodipodi:namedview
     pagecolor="#ffffff"
     bordercolor="#666666"
     borderopacity="1"
     objecttolerance="10"
     gridtolerance="10"
     guidetolerance="10"
     inkscape:pageopacity="0"
     inkscape:pageshadow="2"
     inkscape:window-width="1366"
     inkscape:window-height="706"
     id="namedview33"
     showgrid="false"
     inkscape:zoom="14.75"
     inkscape:cx="11.935817"
     inkscape:cy="4.5762389"
     inkscape:window-x="0"
     inkscape:window-y="0"
     inkscape:window-maximized="1"
     inkscape:current-layer="svg31" />
  <defs
     id="defs23">
    <linearGradient
       id="b">
      <stop
         offset="0"
         stop-color="#e3e3e4"
         id="stop2" />
      <stop
         offset=".5"
         stop-color="#fcfcfc"
         id="stop4" />
      <stop
         offset="1"
         stop-color="#e3e3e4"
         id="stop6" />
    </linearGradient>
    <linearGradient
       id="a">
      <stop
         offset="0"
         stop-color="#c2c3c4"
         id="stop9" />
      <stop
         offset=".095"
         stop-color="#c4c5c8"
         id="stop11" />
      <stop
         offset="1"
         stop-color="#fcfcfc"
         id="stop13" />
    </linearGradient>
    <linearGradient
       id="c">
      <stop
         offset="0"
         stop-opacity=".34"
         id="stop16" />
      <stop
         offset="1"
         stop-opacity=".247"
         id="stop18" />
    </linearGradient>
    <linearGradient
       xlink:href="#b"
       id="d"
       x1="2.903"
       y1="8.504"
       x2="12.828"
       y2="8.504"
       gradientUnits="userSpaceOnUse" />
    <linearGradient
       xlink:href="#c"
       id="e"
       x1=".918"
       y1="5.675"
       x2="14.813"
       y2="3.789"
       gradientUnits="userSpaceOnUse" />
    <radialGradient
       r="20.396999"
       fy="3.99"
       fx="23.896"
       cy="3.99"
       cx="23.896"
       gradientTransform="matrix(0,0.71350132,-0.94180913,0,13.970683,-11.981372)"
       gradientUnits="userSpaceOnUse"
       id="radialGradient3271"
       xlink:href="#radialGradient3093-0-3-6-6-0-8" />
    <radialGradient
       gradientTransform="matrix(0,1.2316483,-1.625754,0,18.486966,-28.721977)"
       gradientUnits="userSpaceOnUse"
       id="radialGradient3093-0-3-6-6-0-8"
       r="20.396999"
       cy="3.99"
       cx="23.896">
      <stop
         offset="0"
         style="stop-color:#ffffff;stop-opacity:1"
         id="stop3244-9-33-7-0-9-5-0" />
      <stop
         offset="0.26238"
         style="stop-color:#dddddd;stop-opacity:1"
         id="stop3246-3-5-0-8-5-0-0" />
      <stop
         offset="0.66093999"
         style="stop-color:#abacae;stop-opacity:1"
         id="stop3248-1-7-8-8-1-0-6" />
      <stop
         offset="1"
         style="stop-color:#89898b;stop-opacity:1"
         id="stop3250-9-3-0-5-1-2-1" />
    </radialGradient>
    <linearGradient
       y2="40.495617"
       x2="71.204407"
       y1="15.369057"
       x1="71.204407"
       gradientTransform="matrix(0.38990465,0,0,0.38990465,-17.929028,-0.62814802)"
       gradientUnits="userSpaceOnUse"
       id="linearGradient3268"
       xlink:href="#linearGradient4806-2-9-2" />
    <linearGradient
       id="linearGradient4806-2-9-2">
      <stop
         offset="0"
         style="stop-color:#ffffff;stop-opacity:1"
         id="stop4808-4-6-7" />
      <stop
         offset="0.42447853"
         style="stop-color:#ffffff;stop-opacity:0.23529412"
         id="stop4810-0-9-3" />
      <stop
         offset="0.82089913"
         style="stop-color:#ffffff;stop-opacity:0.15686275"
         id="stop4812-8-7-9" />
      <stop
         offset="1"
         style="stop-color:#ffffff;stop-opacity:0.39215687"
         id="stop4814-0-7-4" />
    </linearGradient>
    <linearGradient
       xlink:href="#linearGradient4316-5-3-5-6-4-5"
       id="linearGradient4946"
       gradientUnits="userSpaceOnUse"
       gradientTransform="matrix(0.22565757,0,0,0.2256565,-10.567067,2.888219)"
       x1="92.696327"
       y1="16.554602"
       x2="92.696327"
       y2="48.983677" />
    <linearGradient
       id="linearGradient4316-5-3-5-6-4-5">
      <stop
         id="stop4318-1-6-2-7-4-4"
         style="stop-color:#ffffff;stop-opacity:1"
         offset="0" />
      <stop
         id="stop4320-9-8-9-7-3-2"
         style="stop-color:#ffffff;stop-opacity:0.23529412"
         offset="0.33799788" />
      <stop
         id="stop4322-42-31-5-1-4-4"
         style="stop-color:#ffffff;stop-opacity:0.15686275"
         offset="0.61996669" />
      <stop
         id="stop4324-9-9-3-4-2-0"
         style="stop-color:#ffffff;stop-opacity:0.39215687"
         offset="1" />
    </linearGradient>
    <radialGradient
       r="15.639286"
       fy="16.447752"
       fx="91.349998"
       cy="16.447752"
       cx="91.349998"
       gradientTransform="matrix(0,0.44015931,-0.44016136,0,17.452437,-33.357288)"
       gradientUnits="userSpaceOnUse"
       id="radialGradient3254"
       xlink:href="#linearGradient6042-1-7-8-8" />
    <linearGradient
       id="linearGradient6042-1-7-8-8">
      <stop
         offset="0"
         style="stop-color:#07132d;stop-opacity:1"
         id="stop6044-9-6-3-6" />
      <stop
         offset="1"
         style="stop-color:#425479;stop-opacity:1"
         id="stop6046-9-5-1-2" />
    </linearGradient>
    <linearGradient
       inkscape:collect="always"
       xlink:href="#g-5"
       id="linearGradient1114"
       gradientUnits="userSpaceOnUse"
       x1="9.1698875"
       y1="6.6949153"
       x2="12"
       y2="7" />
    <linearGradient
       id="g-5">
      <stop
         offset="0"
         stop-color="#f8b17e"
         id="stop47"
         style="stop-color:#f87e7e;stop-opacity:1" />
      <stop
         offset=".232"
         stop-color="#e35d4f"
         id="stop49"
         style="stop-color:#e34f4f;stop-opacity:1" />
      <stop
         offset=".591"
         stop-color="#c6262e"
         id="stop51"
         style="stop-color:#c6262a;stop-opacity:1" />
      <stop
         offset="1"
         stop-color="#690b54"
         id="stop53"
         style="stop-color:#690b0b;stop-opacity:1" />
    </linearGradient>
    <linearGradient
       inkscape:collect="always"
       xlink:href="#g-5"
       id="linearGradient1116"
       gradientUnits="userSpaceOnUse"
       x1="14.5"
       y1="5"
       x2="12"
       y2="14" />
    <linearGradient
       id="h-3">
      <stop
         offset="0"
         stop-color="#fff"
         id="stop57" />
      <stop
         offset="1"
         stop-color="#c1c1c1"
         id="stop59" />
    </linearGradient>
    <linearGradient
       inkscape:collect="always"
       xlink:href="#h-3"
       id="linearGradient1120"
       gradientUnits="userSpaceOnUse"
       x1="14"
       y1="15"
       x2="7.5"
       y2="14" />
    <linearGradient
       x1="24"
       y1="22"
       x2="24"
       y2="26"
       id="o"
       xlink:href="#h-3"
       gradientUnits="userSpaceOnUse"
       gradientTransform="matrix(0.11456319,-0.12240772,0.12240772,0.11456319,-2.5122639,3.362804)" />
    <linearGradient
       inkscape:collect="always"
       xlink:href="#h-3"
       id="linearGradient1090"
       gradientUnits="userSpaceOnUse"
       x1="12"
       y1="17"
       x2="13.304688"
       y2="17" />
  </defs>
  <g
     stroke-width=".967"
     id="g29">
    <path
       d="M.44 1.44l14.88.006-.004 2.626-6.145 5.31v6.18H6.55V9.38L.44 4.072z"
       fill="url(#d)"
       fill-rule="evenodd"
       stroke="url(#e)"
       stroke-linejoin="round"
       transform="matrix(1.0076 0 0 1.06043 .075 -1.018)"
       id="path25" />
    <path
       d="M1.312 2.32l13.006.05V3.69L8.298 8.94v5.736h-.874V8.94L1.312 3.645z"
       fill="none"
       stroke="#fdfdfb"
       transform="matrix(1.0076 0 0 1.06043 .075 -1.018)"
       id="path27" />
  </g>
  <path
     inkscape:connector-curvature="0"
     d="m 10.212772,5.1735308 c -2.7940055,0 -5.0637562,2.2697492 -5.0637562,5.0637562 0,2.794009 2.2697507,5.063758 5.0637562,5.063758 2.794005,0 5.06376,-2.269749 5.063756,-5.063758 0,-2.794007 -2.269751,-5.0637562 -5.063756,-5.0637562 z"
     id="path2555-7-2-5"
     style="color:#000000;display:inline;overflow:visible;visibility:visible;fill:url(#radialGradient3271);fill-opacity:1;fill-rule:nonzero;stroke:none;stroke-width:0.72339368;marker:none;enable-background:accumulate" />
  <path
     inkscape:connector-curvature="0"
     d="m 14.914831,10.237288 c 0,2.596877 -2.105181,4.702059 -4.702064,4.702059 -2.5968732,0 -4.7020543,-2.105182 -4.7020543,-4.702059 0,-2.5968777 2.1051811,-4.7020594 4.7020543,-4.7020594 2.596883,0 4.702064,2.1051817 4.702064,4.7020594 z"
     id="path4176-3"
     style="color:#000000;display:inline;overflow:visible;visibility:visible;opacity:0.8;fill:none;stroke:url(#linearGradient3268);stroke-width:1;stroke-linecap:round;stroke-linejoin:round;stroke-miterlimit:4;stroke-dasharray:none;stroke-dashoffset:0;stroke-opacity:1;marker:none;enable-background:accumulate" />
  <path
     inkscape:connector-curvature="0"
     d="m 10.07465,4.6492972 c -2.9935204,0 -5.4253501,2.4318275 -5.4253501,5.4253508 0,2.993524 2.4318297,5.425352 5.4253501,5.425352 2.99352,0 5.425355,-2.431828 5.42535,-5.425352 0,-2.9935233 -2.43183,-5.4253508 -5.42535,-5.4253508 z"
     id="path3871-0"
     style="color:#000000;display:inline;overflow:visible;visibility:visible;opacity:0.7;fill:none;stroke:#636363;stroke-width:1;stroke-linecap:butt;stroke-linejoin:miter;stroke-miterlimit:4;stroke-dasharray:none;stroke-dashoffset:0;stroke-opacity:1;marker:none;enable-background:accumulate" />
  <path
     inkscape:connector-curvature="0"
     d="m 13.82974,10.238174 a 3.6169687,3.6169518 0 0 1 -7.233937,0 3.6169687,3.6169518 0 1 1 7.233937,0 z"
     id="path4218-4-9-82-4-1-5"
     style="color:#000000;display:inline;overflow:visible;visibility:visible;opacity:0.3;fill:none;stroke:url(#linearGradient4946);stroke-width:1;stroke-linecap:butt;stroke-linejoin:miter;stroke-miterlimit:4;stroke-dasharray:none;stroke-dashoffset:0;stroke-opacity:1;marker:none;enable-background:accumulate" />
  <path
     d="m 13.688741,10.23802 a 3.4759692,3.4759529 0 0 1 -6.9519383,0 3.4759692,3.4759529 0 1 1 6.9519383,0 z"
     id="path4326-5-7-8-9"
     style="color:#000000;display:inline;overflow:visible;visibility:visible;fill:url(#radialGradient3254);fill-opacity:1;stroke:none;stroke-width:0.89484239;marker:none;enable-background:accumulate"
     inkscape:connector-curvature="0" />
  <g
     id="g4730"
     transform="matrix(2.1409749,0.77925114,-0.77925114,2.1409749,5.8025802,0.65092614)">
    <path
       inkscape:connector-curvature="0"
       id="path3751"
       d="M 3.1782893,0.66986989 2.8744318,2.6966196 2.5453807,2.6140876 V 3.7093391 L 2.8272645,3.6617881 2.8744315,3.9347867 3.178289,5.9615364 3.4821466,3.9347867 3.4765466,3.6680345 3.7973764,3.6195605 V 3.0118454 l -0.2331396,0.00947 -0.082087,-0.324698 z"
       style="fill:#000000;fill-opacity:0.38970588;stroke:none;stroke-width:0.26458335px;stroke-linecap:butt;stroke-linejoin:miter;stroke-opacity:1"
       sodipodi:nodetypes="cccccccccccccc" />
    <g
       transform="matrix(0.18708867,-0.18708867,0.10523738,0.10523738,-0.33291257,4.1572157)"
       id="g3656" />
    <g
       id="g3674"
       transform="matrix(0.18708867,0.18708867,-0.10523738,0.10523738,2.1927845,-0.3329123)" />
    <g
       id="g1098"
       transform="scale(0.26458334)">
      <path
         style="fill:url(#linearGradient1114);fill-opacity:1;stroke:none;stroke-width:1px;stroke-linecap:butt;stroke-linejoin:miter;stroke-opacity:1"
         d="M 12,2 9.6203363,9.880016 12,12 Z"
         id="path1054"
         inkscape:connector-curvature="0"
         sodipodi:nodetypes="cccc" />
      <path
         style="opacity:1;vector-effect:none;fill:url(#linearGradient1116);fill-opacity:1;stroke:none;stroke-width:1;stroke-linecap:round;stroke-linejoin:round;stroke-miterlimit:4;stroke-dasharray:none;stroke-dashoffset:0;stroke-opacity:1"
         d="M 12,2 V 12 L 14.392095,9.880016 Z"
         id="rect1074"
         inkscape:connector-curvature="0"
         sodipodi:nodetypes="cccc" />
      <path
         id="path1086"
         d="m 12,12 v 10 l 2.392095,-7.808885 z"
         style="opacity:1;vector-effect:none;fill:url(#linearGradient1090);fill-opacity:1;stroke:none;stroke-width:1;stroke-linecap:round;stroke-linejoin:round;stroke-miterlimit:4;stroke-dasharray:none;stroke-dashoffset:0;stroke-opacity:1"
         inkscape:connector-curvature="0"
         sodipodi:nodetypes="cccc" />
      <path
         style="fill:url(#linearGradient1120);fill-opacity:1;stroke:none;stroke-width:1px;stroke-linecap:butt;stroke-linejoin:miter;stroke-opacity:1"
         d="M 12,12 9.6203364,14.019549 12,22 Z"
         id="path1088"
         inkscape:connector-curvature="0"
         sodipodi:nodetypes="cccc" />
    </g>
    <g
       transform="matrix(0,0.26458334,-0.26458334,0,6.3500002,0)"
       id="g1108" />
    <path
       id="path83"
       overflow="visible"
       d="m 3.8973717,3.1747972 c -3.961e-4,0.9627655 -1.4451394,0.9627655 -1.4447433,0 -3.964e-4,-0.963558 1.4443469,-0.963558 1.4447433,0 z"
       style="color:#000000;overflow:visible;opacity:0.2;stroke-width:0.72237176"
       inkscape:connector-curvature="0"
       sodipodi:nodetypes="ccc" />
    <path
       inkscape:connector-curvature="0"
       style="color:#000000;overflow:visible;fill:url(#o);stroke-width:0.33531106"
       id="path85"
       overflow="visible"
       d="M 3.4041639,2.9297196 A 0.3353111,0.3353111 0 0 1 2.945911,3.4193505 0.3353111,0.3353111 0 1 1 3.4041639,2.9297196 Z" />
  </g>
</svg>
